X:1
T:Occhi vezzosi e belle
T:Adriano Banchieri Bolognese
T:Source : Canzonette a tre voci di A.Banchieri---Venetia---R.Amadino---1597. Editor : André Vierendeels (09/03/17).
T:Notes : Original clefs : C1, C1, F4 Editorial accidentals above the staff Sub-heading : "Catena di Amore"  
T:Occhi vezzosi e belle
T:©
T:©
T:©
T:©
T:©
C:Adriano Banchieri Bolognese
Z:©
%%score [ 1 2 3 ]
L:1/8
Q:1/4=101
M:4/4
K:C
V:1 treble nm="Soprano 1" snm="S 1"
V:2 treble nm="Soprano 2" snm="S 2"
V:3 bass nm="Bass" snm="B"
V:1
 c8- | c4 B2 A2 | ^G4 A4 | GABc dcBA | B2 c2 d4 | e4 e2 ee | d2 B2 c4 | B4 d2 dd | c2 A2 B4 | %9
w: Oc|_ chi vez-|zo- si'e|bel- * * * * * * *||le, cer- to voi|se- te quel-|li, cer- to voi|se- te quel-|
w: Lu-|* ci chia-|ri'e splen-|den- * * * * * * *||ti, tan- ti fos-|te lu- cen-|ti, tan- ti fo-|ste lu- cen-|
 A4 G2 GG | FGAB c4 | B2 A4 ^G2 | A8 | z8 | e8- | e4 d2 c2 | B2 G2 GABc | d2 c4 B2 | c8 | %19
w: li, cer- to voi|se- * * * *|te quel- *|li,||oc-|* chi vez-|zo- zi'e bel- * * *||li,|
w: ti, tan- to fo-|ste _ _ _ _|lu cen- *|ti||che|_ di tal|sor- tem'of- fus- * * *|cas- te'i lu-|mi,|
 z4 A2 AA | G2 E2 F4 | E4 G2 GG | F2 D2 E4 | D4 A2 AA | G2 A2 B4 | A2 E2 E2 E2 | F4 E4 | %27
w: cer- to voi|se- te quel-|li, cer- to voi|se- te quel-|li, cer- to voi|se- te quel-|li, che'in tal ma-|nie- ra|
w: tan- to fo-|ste lu- cen-|ti, tan- to fo-|ste lu- cen|ti, tan- to fo-|ste lu- cen-|ti, che di tal|sor- te|
 z2 e4 d2- | d2 c4 B2 | c3 B A4 | B2 e2 ^c3 c | d2 d2 B2 c2 | A3 A F2 F2 | E4 z2 E2 | A3 G ^F2 A2 | %35
w: mi le-|* ga- ste'il|co- * *|re, che scio- glier|non lo puo, che|scio- glier non lo|puo, se|non _ _ a-|
w: m'of- fus-|* ca- ste'|lu- * *|mi, che cie- co|po- te- ro, che|cie- co po- te-|ro, men-|tre'io _ _ con-|
 ^G2 A4 G2 | A2 A2 B2 ^c2 | d4 e4 | z2 c4 B2- | B2 A4 ^G2 | A8 | ^G4 z2 A2 | ^F3 F G2 E2 | %43
w: mo- * *|re, che'in tal ma-|nie- ra,|mi le-|* ga- ste'il|co-|re, che|scio- glier non lo|
w: su- * *|mi, che di tal|sor- te|m'of- fus-|* ca- ste'i|lu-|mi, che|cie- co re- ste-|
 F2 F2 A3 A | G2 G4 c2- | c2 A4 d2- | d2 c2 B4 | ^c8 |] %48
w: puo, che scio- glier|non lo puo,|_ se non|_ a- mo-|re.|
w: ro, che cie- co|re- ste- ro|_ men- tre'io|_ con- su-|mi.|
V:2
 z8 | e8- | e4 d2 c2 | B2 G2 GABc | d2 c4 B2 | c8 | z4 A2 AA | G2 E2 F4 | E4 G2 GG | F2 D2 E4 | %10
w: |Oc|_ chi vez-|zo- si'e bel- * * *||li,|cer- to voi|se- te quel-|li, cer- to voi|se- te quel-|
w: |Ahi-|* me pos-|so ben di- * * *||re,|che sol vor-|rei mo- ri-|re, che sol vor-|rei mo- ri-|
 D4 A2 AA | ^G2 A2 B4 | ^c8 |"^-natural" c8- | c4 B2 A2 | ^G4 A4 | GABc dcBA | B2 c2 d4 | %18
w: li, cer- to voi|se- te quel-|li|Oc|_ chi vez-|zo- si'e|bel- * * * * * * *||
w: re, che sol vor-|rei mo- ri-|re,|ahi-|* me pos-|so ben|di- * * * * * * *||
 e4 e2 ee | d2 B2 c4 | B4 d2 dd | c2 A2 B4 | A4 G2 GG | FGAB c4 | B2 A4 ^G2 | A2 A2 B2 ^c2 | %26
w: li, cer- to voi|se- te quel-|li, cer- to voi|se- te quel-|li, cer- to voi|se- * * * *|te quel- *|li, che'in tal ma-|
w: re, che sol vor-|rei mo- ri-|re, che sol vor-|rei mo- ri-|re, che sol vor-|rei _ _ _ _|mo- ri- *|re, ma go- do'in|
 d4 e4 | z2 c4 B2- | B2 A4 ^G2 | A8 | ^G4 z2 A2 | ^F3 F G2 E2 | F2 F2 A3 A | G2 G4 c2- | %34
w: nie- ra|mi le-|* ga- ste'il|co-|re, che|sio- glier non leo|puo, che scio- glier|non lo puo|
w: que- sto|so- lo'e|_ mi ra-|vi-|vo, quan-|do del mi- rar|voi, quan- do del|mi- rar voi|
 c2 A4 d2- | d2 c2 B4 | A2 E2 E2 E2 | F4 E4 | z2 e4 d2- | d2 c4 B2 | c3 B A4 | B2 e2 ^c3 c | %42
w: _ se non|_ a- mo-|re, che'in tal ma-|nie- ra,|mi le-|* ga- ste'il|co- * *|re, che scio- glier|
w: _ con sia|_ pri- *|vo, ma go- do'in|que- sto|e mi|_ ra _|vi- * *|vo, quan- do del|
 d2 d2 B2 c2 | A3 A F2 F2 | E4 z2 E2 | A3 G ^F2 A2 | ^G2 A4 G2 | A8 |] %48
w: non lo puo, che|scio- glier non lo|puo, se|non _ _ a-|mo- * *|re.|
w: mi- rar voi, quan-|do del mi- rar|voi io|non _ _ sia|pri- * *|vo.|
V:3
 A,8- | A,4 G,2 F,2 | E,4 ^F,4 | G,8- | G,8 | C,4 C2 CC | B,2 G,2 A,4 | E,4 z4 | A,2 A,A, G,2 E,2 | %9
w: Oc-|* chi vez-|zo- si'e|bel-||li, cer- to voi|se- te quel-|li,|cer- to voi se- te|
 F,4 E,4 | z4 A,,2 A,,A,, | E,2 F,2 E,4 | A,,8 | A,8- | A,4 G,2 F,2 | E,4 ^F,4 | G,8- | G,8 | %18
w: quel- li,|cer- to voi|se- te quel-|li|Oc-|* chi vez-|eo- si'e|bel-||
 C,4 C2 CC | B,2 G,2 A,4 | E,4 z4 | A,2 A,A, G,2 E,2 | F,4 E,4 | z4 A,,2 A,,A,, | E,2 F,2 E,4 | %25
w: li, cer- to voi|se- te quel-|li,|cer- to voi se- te|quel- li,|cer- to voi|se- te quel-|
 A,,2 A,,2 ^G,,2 A,,2 | D,4 A,,4 | A,4 G,4 | F,4 E,4 | A,3 G, F,4 | E,2 E,2 A,3 A, | %31
w: li, che'in tal ma-|nie- ra|mi le-|ga- ste'il|co- * *|re, che scio- glier|
 D,2 D,2 G,2 C,2 | F,3 F, D,2 D,2 | E,4 C,4 | F,4 D,4 | E,8 | A,,2 A,,2 ^G,,2 A,,2 | D,4 A,,4 | %38
w: non lo puo, che|scio- glier non lo|puo, se|non a-|mo-|re, che'in tal ma-|nie- ra,|
 A,4 G,4 | F,4 E,4 | A,3 G, F,4 | E,2 E,2 A,3 A, | D,2 D,2 G,2 C,2 | F,3 F, D,2 D,2 | E,4 C,4 | %45
w: mi le-|ga- ste'il|co- * *|re, che scio- glier|non lo puo, che|scio- glier non lo|puo, se|
 F,4 D,4 | E,8 | A,,8 |] %48
w: non a-|mo-|re.|

